X:1
T:The Nightingale
C:Sean Ryan
B:(p. 13 in "The Hidden Ireland"
D:first recorded by Paddy Canny and P.J. Hayes on their celebrated 1960 LP, as "Sean Ryan's,"
D:also on Bobby Casey's "Taking Flight."
R:jig
S:from Mike Rafferty
Z:Tom Madden/Lesl Harker irtrad-l 2000-12-17
M:6/8
L:1/8
Q:140
K:G
AAG|:EAA A2B|cAd cAG|EDE G~G2|DEF G~G2|
EAG A2B|cAB cde|~g3 ege|1 dBG A2G:|2 dBG A3||
|:aea aef|gdg gdg|aea aef|gfe def|
g2e fed|edB GBd|~g3 ege|1 dBG A2G:|2 dBG A3||
